public/svg/tomato.svg

<?xml version="1.0" encoding="UTF-8" standalone="no"?>
<svg width="473px" height="450px" viewBox="0 0 473 450" version="1.1" xmlns="http://www.w3.org/2000/svg"
     xmlns:xlink="http://www.w3.org/1999/xlink">
    <title>A beautiful tomato</title>
    <g id="Page-1" stroke="none" stroke-width="1" fill="none" fill-rule="evenodd">
        <g id="Tomatoro---Master" transform="translate(-120.000000, -150.000000)">
            <g id="Group-5" transform="translate(120.000000, 150.000000)">
                <path d="M236.452826,449.640602 C367.042116,449.640602 472.905652,368.8543 472.905652,253.168631 C472.905652,137.495884 401.533868,66.7561132 236.452826,65.6272043 C71.3717837,64.5235506 0,137.495884 0,253.168631 C0,368.8543 105.863536,449.640602 236.452826,449.640602 Z"
                      id="Oval-3" fill="#da3b1b"></path>
                <path d="M295.075399,84.8268372 C293.595988,84.0933826 292.072546,83.414888 290.518283,82.7828477 C289.163257,82.2325932 289.452755,81.0071155 290.992708,80.6681953 C291.101682,80.6439867 291.209556,80.6204324 291.319631,80.5955696 C314.35178,75.4155873 328.512963,62.5209187 333.366182,57.4344993 C334.429509,56.3195959 333.527992,54.9024125 331.489399,54.484978 C322.189139,52.5823143 297.213061,48.4884468 274.180912,53.6684291 C257.372419,57.4482393 245.289457,65.3369657 238.100441,71.3014369 C237.286985,71.9760057 235.618244,71.9760057 234.805888,71.3014369 C227.616872,65.3369657 215.53391,57.4488936 198.725417,53.6684291 C175.693268,48.4884468 150.71719,52.5823143 141.41693,54.484978 C139.377236,54.9017582 138.475719,56.3195959 139.540147,57.4344993 C144.391164,62.5202644 158.554549,75.4155873 181.586698,80.5955696 C181.695672,80.6197782 181.803546,80.6439867 181.913621,80.6681953 C183.452474,81.0071155 183.743072,82.2325932 182.388046,82.7828477 C180.833783,83.4142337 179.310341,84.0940368 177.83093,84.8268372 C158.917797,94.201447 152.634701,109.140759 150.851482,114.891279 C150.460714,116.151434 152.093131,117.316063 154.249505,117.313446 C164.085831,117.302977 189.94031,116.313043 208.853442,106.938433 C208.865551,106.932544 208.87876,106.926001 208.890868,106.920113 C210.232685,106.25405 212.240458,106.812155 212.237156,107.851162 C212.237156,107.860976 212.237156,107.870136 212.237156,107.880605 C212.237156,122.518291 227.516704,134.954305 233.802002,139.451867 C235.180144,140.437876 237.729487,140.437876 239.10763,139.451867 C245.394028,134.954305 260.672475,122.518945 260.672475,107.880605 C260.672475,107.87079 260.672475,107.86163 260.672475,107.851162 C260.671374,106.811501 262.676946,106.253395 264.018763,106.920113 C264.030872,106.926001 264.044081,106.932544 264.056189,106.938433 C282.969321,116.313043 308.8238,117.302323 318.660126,117.313446 C320.816501,117.315409 322.448917,116.152088 322.05815,114.891279 C320.270527,109.141414 313.987431,94.201447 295.075399,84.8268372 Z"
                      id="Shape" fill="#00A155" fill-rule="nonzero"></path>
                <path d="M238.137285,79.4883227 C232.237689,79.4883227 227.445589,78.6942678 227.445589,72.7675975 C227.445589,42.8814163 241.287141,16.4627614 261.4137,2.09069697 C266.214873,-1.33766621 272.88075,-0.224697648 276.311101,4.58543339 C279.752506,9.4097934 278.632797,16.1172781 273.817817,19.5551373 C258.826101,30.2612985 248.828981,50.0241494 248.828981,72.7675975 C248.828981,78.6940686 244.036291,79.4883227 238.137285,79.4883227 Z"
                      id="Shape" fill="#006539" fill-rule="nonzero"></path>
            </g>
        </g>
    </g>
</svg>

<svg xmlns="http://www.w3.org/2000/svg" width="473" height="450"><g fill="none" fill-rule="evenodd"><path fill="#da3b1b" d="M236.453 449.64c130.59 0 236.453-80.786 236.453-196.471 0-115.673-71.372-186.413-236.453-187.542C71.372 64.524 0 137.496 0 253.17 0 368.854 105.864 449.64 236.453 449.64Z"/><path fill="#00A155" fill-rule="nonzero" d="M295.075 84.827a67.533 67.533 0 0 0-4.557-2.044c-1.355-.55-1.065-1.776.475-2.115l.327-.072c23.032-5.18 37.193-18.075 42.046-23.162 1.064-1.114.162-2.532-1.877-2.949-9.3-1.903-34.276-5.997-57.308-.817-16.809 3.78-28.892 11.669-36.08 17.633-.814.675-2.483.675-3.295 0-7.19-5.964-19.272-13.852-36.08-17.633-23.033-5.18-48.009-1.086-57.31.817-2.039.417-2.94 1.835-1.876 2.95 4.851 5.085 19.015 17.98 42.047 23.16l.327.073c1.538.34 1.83 1.565.474 2.115a67.533 67.533 0 0 0-4.557 2.044c-18.913 9.374-25.196 24.314-26.98 30.064-.39 1.26 1.242 2.425 3.399 2.422 9.836-.01 35.69-1 54.603-10.375.013-.005.026-.012.038-.018 1.342-.666 3.35-.108 3.346.931v.03c0 14.637 15.28 27.073 21.565 31.57 1.378.987 3.927.987 5.306 0 6.286-4.497 21.564-16.932 21.564-31.57v-.03c0-1.04 2.005-1.598 3.347-.93l.037.017c18.913 9.375 44.768 10.364 54.604 10.375 2.157.002 3.789-1.16 3.398-2.422-1.787-5.75-8.07-20.69-26.983-30.064Z"/><path fill="#006539" fill-rule="nonzero" d="M238.137 79.488c-5.9 0-10.691-.794-10.691-6.72 0-29.887 13.841-56.305 33.968-70.677 4.8-3.429 11.467-2.316 14.897 2.494 3.442 4.825 2.322 11.532-2.493 14.97-14.992 10.706-24.989 30.47-24.989 53.213 0 5.926-4.793 6.72-10.692 6.72Z"/></g></svg>
